symbols/web/help/materialsymbolsrounded/help_wght200grad200_48px.svg

<svg xmlns="http://www.w3.org/2000/svg" height="48" width="48"><path d="M24.2 34.85q.65 0 1.1-.475.45-.475.45-1.075t-.45-1.075q-.45-.475-1.1-.475-.65 0-1.1.475-.45.475-.45 1.075t.45 1.075q.45.475 1.1.475Zm-.05-19.65q1.7 0 2.825.925Q28.1 17.05 28.1 18.6q0 1-.5 1.9-.5.9-1.7 1.9-1.2 1.1-2.05 2.15-.85 1.05-.9 2.5-.05.4.25.7.3.3.75.3t.775-.275q.325-.275.425-.775.15-.85.65-1.625t1.5-1.775q1.45-1.3 2.075-2.525Q30 19.85 30 18.5q0-2.3-1.575-3.825-1.575-1.525-4.175-1.525-1.75 0-3.2.825-1.45.825-2.55 2.175-.25.3-.175.725.075.425.375.625.35.25.825.175.475-.075.875-.575.65-.75 1.525-1.325.875-.575 2.225-.575Zm-.2 27.6q-3.95 0-7.375-1.45t-5.95-4Q8.1 34.8 6.65 31.375 5.2 27.95 5.2 24t1.45-7.4q1.45-3.45 3.975-5.975Q13.15 8.1 16.575 6.65 20 5.2 23.95 5.2q3.85 0 7.3 1.45 3.45 1.45 6.025 3.975 2.575 2.525 4.05 5.975Q42.8 20.05 42.8 24t-1.475 7.375q-1.475 3.425-4.05 5.95-2.575 2.525-6 4T23.95 42.8ZM24 23.75Zm-.05 16.85q6.95 0 11.8-4.85Q40.6 30.9 40.6 24q0-6.85-4.85-11.725T23.95 7.4q-7 0-11.775 4.875T7.4 24q0 6.9 4.775 11.75T23.95 40.6Z"/></svg>

<svg xmlns="http://www.w3.org/2000/svg" height="48" width="48"><path d="M24.2 34.85Q24.85 34.85 25.3 34.375Q25.75 33.9 25.75 33.3Q25.75 32.7 25.3 32.225Q24.85 31.75 24.2 31.75Q23.55 31.75 23.1 32.225Q22.65 32.7 22.65 33.3Q22.65 33.9 23.1 34.375Q23.55 34.85 24.2 34.85ZM24.15 15.2Q25.85 15.2 26.975 16.125Q28.1 17.05 28.1 18.6Q28.1 19.6 27.6 20.5Q27.1 21.4 25.9 22.4Q24.7 23.5 23.85 24.55Q23 25.6 22.95 27.05Q22.9 27.45 23.2 27.75Q23.5 28.05 23.95 28.05Q24.4 28.05 24.725 27.775Q25.05 27.5 25.15 27Q25.3 26.15 25.8 25.375Q26.3 24.6 27.3 23.6Q28.75 22.3 29.375 21.075Q30 19.85 30 18.5Q30 16.2 28.425 14.675Q26.85 13.15 24.25 13.15Q22.5 13.15 21.05 13.975Q19.6 14.8 18.5 16.15Q18.25 16.45 18.325 16.875Q18.4 17.3 18.7 17.5Q19.05 17.75 19.525 17.675Q20 17.6 20.4 17.1Q21.05 16.35 21.925 15.775Q22.8 15.2 24.15 15.2ZM23.95 42.8Q20 42.8 16.575 41.35Q13.15 39.9 10.625 37.35Q8.1 34.8 6.65 31.375Q5.2 27.95 5.2 24Q5.2 20.05 6.65 16.6Q8.1 13.15 10.625 10.625Q13.15 8.1 16.575 6.65Q20 5.2 23.95 5.2Q27.8 5.2 31.25 6.65Q34.7 8.1 37.275 10.625Q39.85 13.15 41.325 16.6Q42.8 20.05 42.8 24Q42.8 27.95 41.325 31.375Q39.85 34.8 37.275 37.325Q34.7 39.85 31.275 41.325Q27.85 42.8 23.95 42.8ZM24 23.75ZM23.95 40.6Q30.9 40.6 35.75 35.75Q40.6 30.9 40.6 24Q40.6 17.15 35.75 12.275Q30.9 7.4 23.95 7.4Q16.95 7.4 12.175 12.275Q7.4 17.15 7.4 24Q7.4 30.9 12.175 35.75Q16.95 40.6 23.95 40.6Z"/></svg>
